!!!OTL: ALS MICH DIE MAMA HAENSCHEN KUESSEN SAH
!!!ARE: Europa, Mitteleuropa, Deutschland
!!!SCT: B0367
!!!YEM: Copyright 1995, estate of Helmut Schaffrath.
**kern
*ICvox
*Ivox
*M2/4
*k[f#]
*G:
=1
{8g
8b
8a
8cc
=2
8.b
16cc
8dd
8r}
=3
{8g
8b
8a
8cc
=4
8.b
16cc
8dd
8r}
=5
{8b
16gg
16ee
8dd
8cc#
=6
4cc#
4dd}
=7
{8dd
16cc
16b
8ee
8dd
=8
8.cc
16dd
8ee
8r}
=9
{8cc
16b
16a
8dd
8cc
=10
8.b
16cc
8dd
8r}
=11
{8b
16dd
16g
8b
8a
=12
4g
4r}
==
!!!AGN: Scherz - Lied, Liebe, Moral
!!!ONB: ESAC (Essen Associative Code) Database: BOEHME
!!!AMT: simple duple
!!!AIN: vox
!!!EED: Helmut Schaffrath
!!!EEV: 1.0
*-
